X:108
T:Lincolnshire Lasses
M:C
L:1/8
B:Thompson's Compleat Collection of 200 Favourite Country Dances, vol. 2 (London, 1765)
Z:Transcribed and edited by Flynn Titford-Mock, 2007
Z:abc's:AK/Fiddler's Companion
K:G
g>dc>B e>cB>A | c>BA>G A>FE>D | g>dc>B e>cB>A | BdDF G4 :|
|: g>de>=f e>cB>A | a>ef>g g2f2 | bgaf gedc | BdDF G4 :|

